public/avatar/hat/32.svg

<svg xmlns:xlink="http://www.w3.org/1999/xlink" height="92.9" width="100.7" xmlns="http://www.w3.org/2000/svg"><g transform="translate(38.65 49.75)"><use height="8.4" transform="translate(-19 -1.5)" width="10.05" xlink:href="#a"/><use height="6.55" transform="translate(-12.15 -3.7)" width="7.15" xlink:href="#b"/><use height="8.4" transform="translate(10.6 4.9)" width="10.05" xlink:href="#a"/><use height="23.75" transform="translate(-24.45 -.4)" width="48.45" xlink:href="#c"/><use height="8.4" transform="translate(3.35 -4.15)" width="10.05" xlink:href="#a"/><use height="8.4" transform="translate(-9.75 -7.75)" width="10.05" xlink:href="#a"/><use height="6.55" transform="translate(10.4 -.35)" width="7.15" xlink:href="#b"/><use height="6.55" transform="translate(-2.25 -5.8)" width="7.15" xlink:href="#b"/><use height="6.55" transform="translate(-19.8 5.9)" width="7.15" xlink:href="#b"/></g><defs><g id="d" fill-rule="evenodd"><path d="M1.9-.95q-.65.1-1.05.65L.8-.15l.1.3q.75.85 1.65.1l.15-.2q.35-1-.8-1M.3-.7l.3-.2Q1.1-2-.2-2.05l-.4.15q-.45.25-.35.75Q-.5-.5.3-.7m2.3-2.55 1.5.15q1.15 1.85-.55 2.25l.95 1q.6.95.45 2.15-1.8 1.15-3.75-.35.05 1.2-1.05 2.1-1.1.85-2.5-1.65l-.85-.1-1.5-.65Q-6.05-.05-2.45-1.2l-.2-1.4q-.1-.95 1.25-1.25l2.4-.3q.6.3.75 1.3l.85-.4M-1.45.45q-.1.45.3.65.7.35 1.2-.25.7-.95-.45-1.1-.65.15-1.05.7" fill="#f39" transform="translate(5.05 4.15)"/><path d="M.3-.7q-.8.2-1.25-.45-.1-.5.35-.75l.4-.15Q1.1-2 .6-.9l-.3.2m1.6-.25q1.15 0 .8 1l-.15.2Q1.65 1 .9.15l-.1-.3.05-.15q.4-.55 1.05-.65M-1.45.45q.4-.55 1.05-.7Q.75-.1.05.85q-.5.6-1.2.25-.4-.2-.3-.65" fill="#fc0" transform="translate(5.05 4.15)"/></g><g id="e" fill-rule="evenodd"><path d="M.45-.7Q-.05.4-1-.45q-.15-.4.1-.7l.25-.3.1-.05h.25v-.05q.65.1.75.7v.15m1.6-.65Q2.85-.85 2 0l-.3.15-.7-.4-.05-.3V-1q.2-.45.65-.5h.1v-.05l.35.2M.85 1.1q-.5 1.1-1.45.25-.15-.4.1-.7l.25-.3.1-.05H.1V.25q.65.1.75.7v.15" fill="#fff" transform="translate(3.6 3.35)"/><path d="M.45-.7v-.15q-.1-.6-.75-.7v.05h-.25l-.1.05-.25.3q-.25.3-.1.7Q-.05.4.45-.7m1.15-.8q-.45.05-.65.5v.45l.05.3.7.4L2 0q.85-.85.05-1.35Q3.25-1.1 3.5.3q.2 1.2-.95 1.1h-.2q.35.65-.65 1.65L.6 3.2l-1-.95q-.85.45-2.05.3l-.35-.2-.05-.3V1.6l.35-.45-1-.45-.1-.35q.25-1.55 1.95-1.7-.4-.7.55-1.45l1-.55q2.5.1 1.7 1.85M.85 1.1V.95Q.75.35.1.25V.3h-.25l-.1.05-.25.3q-.25.3-.1.7.95.85 1.45-.25" fill="#f9c" transform="translate(3.6 3.35)"/></g><g id="c" fill-rule="evenodd"><path d="m15.8 15.05 2.7.1L21.75 14q-.25 1.45-1.1 2.45l1.95-.25q.95-.15 1.4-.6.2 3.5-2.45 5.95-3.05 2.75-6.4.35-.8-5.7-3.65-10.05l3.8 3 .05.05.35.25.1-.1M3.95 4.15-.1 2q2.3 2.4 1.75 4.1Q.5 9.75-3.45 8.5-.3 6.8-.1 2l-2.55 2.6L-5.3 7l-2.75 2h-.05l-2.4 1.75q-4.65 4-4.9 12.6-3.75 0-6.4-2.2-2.65-2.2-2.65-5.35 4.7 1.4 5.85.35l.15-.1-.1-.05q-.65-.15-1.25-.5-1.7-1.05-1.35-3.1.1 1.05 1.65 1.4 1.85.5 3.45-.5l.05-.05q-.2-1.55.15-3.2l.05-.1q4.45-1.2 11-5.55l.05.05v-.1l4.6-3.3h.05L.45.6l-.6.35q-9.1 5.45-14.45 6.1.9-1.5 2.45-2.95l2.2-1.95L-8 .85Q-4.25-1.2.5.5h.05l.1-.05q4.1-2.3 8.95 1.7 5 4.15 5.05 8.55Q8.35 8.25 1.25.9l2.7 3.25" transform="translate(24.45 .4)"/><path d="m-.1 1.05-.05-.1.6-.35-.55.45" fill="#fc0" transform="translate(24.45 .4)"/><path d="M11.5 11.85q-3.15-4.8-7.55-7.7L1.25.9q7.1 7.35 13.4 9.8 2.7 2.5 1.15 4.35l-.1.1-.35-.25-.05-.05-3.8-3m-27.3-1.9q.3-1.55 1.2-2.9Q-9.25 6.4-.15.95l.05.1h-.05l-4.6 3.3-.05.05q-6.55 4.35-11 5.55" fill="#03c" transform="translate(24.45 .4)"/><path d="m-4.8 4.4.05-.05v.1l-.05-.05" fill="#f90" transform="translate(24.45 .4)"/></g><use height="8.4" width="10.05" xlink:href="#d" id="a"/><use height="6.55" width="7.15" xlink:href="#e" id="b"/></defs></svg>

<?xml version="1.0" encoding="UTF-8" standalone="no"?>
<svg xmlns:xlink="http://www.w3.org/1999/xlink" height="92.9px" width="100.7px" xmlns="http://www.w3.org/2000/svg">
  <g transform="matrix(1.0, 0.0, 0.0, 1.0, 38.65, 49.75)">
    <use height="8.4" transform="matrix(1.0, 0.0, 0.0, 1.0, -19.0, -1.5)" width="10.05" xlink:href="#sprite0"/>
    <use height="6.55" transform="matrix(1.0, 0.0, 0.0, 1.0, -12.15, -3.7)" width="7.15" xlink:href="#sprite1"/>
    <use height="8.4" transform="matrix(1.0, 0.0, 0.0, 1.0, 10.6, 4.9)" width="10.05" xlink:href="#sprite0"/>
    <use height="23.75" transform="matrix(1.0, 0.0, 0.0, 1.0, -24.45, -0.4)" width="48.45" xlink:href="#shape2"/>
    <use height="8.4" transform="matrix(1.0, 0.0, 0.0, 1.0, 3.35, -4.15)" width="10.05" xlink:href="#sprite0"/>
    <use height="8.4" transform="matrix(1.0, 0.0, 0.0, 1.0, -9.75, -7.75)" width="10.05" xlink:href="#sprite0"/>
    <use height="6.55" transform="matrix(1.0, 0.0, 0.0, 1.0, 10.4, -0.35)" width="7.15" xlink:href="#sprite1"/>
    <use height="6.55" transform="matrix(1.0, 0.0, 0.0, 1.0, -2.25, -5.8)" width="7.15" xlink:href="#sprite1"/>
    <use height="6.55" transform="matrix(1.0, 0.0, 0.0, 1.0, -19.8, 5.9)" width="7.15" xlink:href="#sprite1"/>
  </g>
  <defs>
    <g id="sprite0" transform="matrix(1.0, 0.0, 0.0, 1.0, 5.05, 4.15)">
      <use height="8.4" transform="matrix(1.0, 0.0, 0.0, 1.0, -5.05, -4.15)" width="10.05" xlink:href="#shape0"/>
    </g>
    <g id="shape0" transform="matrix(1.0, 0.0, 0.0, 1.0, 5.05, 4.15)">
      <path d="M1.9 -0.95 Q1.25 -0.85 0.85 -0.3 L0.8 -0.15 0.9 0.15 Q1.65 1.0 2.55 0.25 L2.7 0.05 Q3.05 -0.95 1.9 -0.95 M0.3 -0.7 L0.6 -0.9 Q1.1 -2.0 -0.2 -2.05 L-0.6 -1.9 Q-1.05 -1.65 -0.95 -1.15 -0.5 -0.5 0.3 -0.7 M2.6 -3.25 L4.1 -3.1 Q5.25 -1.25 3.55 -0.85 L4.5 0.15 Q5.1 1.1 4.95 2.3 3.15 3.45 1.2 1.95 1.25 3.15 0.15 4.05 -0.95 4.9 -2.35 2.4 L-3.2 2.3 -4.7 1.65 Q-6.05 -0.05 -2.45 -1.2 L-2.65 -2.6 Q-2.75 -3.55 -1.4 -3.85 L1.0 -4.15 Q1.6 -3.85 1.75 -2.85 L2.6 -3.25 M-1.45 0.45 Q-1.55 0.9 -1.15 1.1 -0.45 1.45 0.05 0.85 0.75 -0.1 -0.4 -0.25 -1.05 -0.1 -1.45 0.45" fill="#ff3399" fill-rule="evenodd" stroke="none"/>
      <path d="M0.3 -0.7 Q-0.5 -0.5 -0.95 -1.15 -1.05 -1.65 -0.6 -1.9 L-0.2 -2.05 Q1.1 -2.0 0.6 -0.9 L0.3 -0.7 M1.9 -0.95 Q3.05 -0.95 2.7 0.05 L2.55 0.25 Q1.65 1.0 0.9 0.15 L0.8 -0.15 0.85 -0.3 Q1.25 -0.85 1.9 -0.95 M-1.45 0.45 Q-1.05 -0.1 -0.4 -0.25 0.75 -0.1 0.05 0.85 -0.45 1.45 -1.15 1.1 -1.55 0.9 -1.45 0.45" fill="#ffcc00" fill-rule="evenodd" stroke="none"/>
    </g>
    <g id="sprite1" transform="matrix(1.0, 0.0, 0.0, 1.0, 3.6, 3.35)">
      <use height="6.55" transform="matrix(1.0, 0.0, 0.0, 1.0, -3.6, -3.35)" width="7.15" xlink:href="#shape1"/>
    </g>
    <g id="shape1" transform="matrix(1.0, 0.0, 0.0, 1.0, 3.6, 3.35)">
      <path d="M0.45 -0.7 Q-0.05 0.4 -1.0 -0.45 -1.15 -0.85 -0.9 -1.15 L-0.65 -1.45 -0.55 -1.5 -0.3 -1.5 -0.3 -1.55 Q0.35 -1.45 0.45 -0.85 L0.45 -0.7 M2.05 -1.35 Q2.85 -0.85 2.0 0.0 L1.7 0.15 1.0 -0.25 0.95 -0.55 0.95 -1.0 Q1.15 -1.45 1.6 -1.5 L1.7 -1.5 1.7 -1.55 2.05 -1.35 M0.85 1.1 Q0.35 2.2 -0.6 1.35 -0.75 0.95 -0.5 0.65 L-0.25 0.35 -0.15 0.3 0.1 0.3 0.1 0.25 Q0.75 0.35 0.85 0.95 L0.85 1.1" fill="#ffffff" fill-rule="evenodd" stroke="none"/>
      <path d="M0.45 -0.7 L0.45 -0.85 Q0.35 -1.45 -0.3 -1.55 L-0.3 -1.5 -0.55 -1.5 -0.65 -1.45 -0.9 -1.15 Q-1.15 -0.85 -1.0 -0.45 -0.05 0.4 0.45 -0.7 M1.6 -1.5 Q1.15 -1.45 0.95 -1.0 L0.95 -0.55 1.0 -0.25 1.7 0.15 2.0 0.0 Q2.85 -0.85 2.05 -1.35 3.25 -1.1 3.5 0.3 3.7 1.5 2.55 1.4 L2.35 1.4 Q2.7 2.05 1.7 3.05 L0.6 3.2 -0.4 2.25 Q-1.25 2.7 -2.45 2.55 L-2.8 2.35 -2.85 2.05 -2.85 1.6 -2.5 1.15 -3.5 0.7 -3.6 0.35 Q-3.35 -1.2 -1.65 -1.35 -2.05 -2.05 -1.1 -2.8 L-0.1 -3.35 Q2.4 -3.25 1.6 -1.5 M0.85 1.1 L0.85 0.95 Q0.75 0.35 0.1 0.25 L0.1 0.3 -0.15 0.3 -0.25 0.35 -0.5 0.65 Q-0.75 0.95 -0.6 1.35 0.35 2.2 0.85 1.1" fill="#ff99cc" fill-rule="evenodd" stroke="none"/>
    </g>
    <g id="shape2" transform="matrix(1.0, 0.0, 0.0, 1.0, 24.45, 0.4)">
      <path d="M15.8 15.05 L18.5 15.15 21.75 14.0 Q21.5 15.45 20.65 16.45 L22.6 16.2 Q23.55 16.05 24.0 15.6 24.2 19.1 21.55 21.55 18.5 24.3 15.15 21.9 14.35 16.2 11.5 11.85 L15.3 14.85 15.35 14.9 15.7 15.15 15.8 15.05 M3.95 4.15 L-0.1 2.0 Q2.2 4.4 1.65 6.1 0.5 9.75 -3.45 8.5 -0.3 6.8 -0.1 2.0 L-2.65 4.6 -5.3 7.0 -8.05 9.0 -8.1 9.0 -10.5 10.75 Q-15.15 14.75 -15.4 23.35 -19.15 23.35 -21.8 21.15 -24.45 18.95 -24.45 15.8 -19.75 17.2 -18.6 16.15 L-18.45 16.05 -18.55 16.0 Q-19.2 15.85 -19.8 15.5 -21.5 14.45 -21.15 12.4 -21.05 13.45 -19.5 13.8 -17.65 14.3 -16.05 13.3 L-16.0 13.25 Q-16.2 11.7 -15.85 10.05 L-15.8 9.95 Q-11.35 8.75 -4.8 4.4 L-4.75 4.45 -4.75 4.4 -4.75 4.35 -0.15 1.05 -0.1 1.05 0.45 0.6 -0.15 0.95 Q-9.25 6.4 -14.6 7.05 -13.7 5.55 -12.15 4.1 L-9.95 2.15 -8.0 0.85 Q-4.25 -1.2 0.5 0.5 L0.55 0.5 0.65 0.45 Q4.75 -1.85 9.6 2.15 14.6 6.3 14.65 10.7 8.35 8.25 1.25 0.9 L3.95 4.15" fill="#000000" fill-rule="evenodd" stroke="none"/>
      <path d="M-0.1 1.05 L-0.15 0.95 0.45 0.6 -0.1 1.05" fill="#ffcc00" fill-rule="evenodd" stroke="none"/>
      <path d="M11.5 11.85 Q8.35 7.05 3.95 4.15 L1.25 0.9 Q8.35 8.25 14.65 10.7 17.35 13.2 15.8 15.05 L15.7 15.15 15.35 14.9 15.3 14.85 11.5 11.85 M-15.8 9.95 Q-15.5 8.4 -14.6 7.05 -9.25 6.4 -0.15 0.95 L-0.1 1.05 -0.15 1.05 -4.75 4.35 -4.8 4.4 Q-11.35 8.75 -15.8 9.95" fill="#0033cc" fill-rule="evenodd" stroke="none"/>
      <path d="M-4.8 4.4 L-4.75 4.35 -4.75 4.4 -4.75 4.45 -4.8 4.4" fill="#ff9900" fill-rule="evenodd" stroke="none"/>
    </g>
  </defs>
</svg>
